build/images/icons/header/logout.svg

<svg xmlns="http://www.w3.org/2000/svg" viewBox="0 0 24 24"><path d="M14.2 24H4.6c-1.3 0-2.4-1.1-2.4-2.4V2.4c0-1.3 1-2.4 2.4-2.4h9.6c.3 0 .5.2.5.5s-.3.5-.5.5H4.6c-.8 0-1.5.6-1.5 1.4v19.2c0 .8.6 1.4 1.4 1.4h9.6c.3 0 .5.2.5.5s-.2.5-.4.5z"/><path class="st0" d="M9.8 11.5c-.3 0-.5.2-.5.5s.2.5.5.5v-1zm11.9.8c.2-.2.2-.5 0-.7l-3.1-3.1c-.2-.2-.5-.2-.7 0-.2.2-.2.5 0 .7l2.7 2.7-2.6 2.8c-.2.2-.2.5 0 .7.2.2.5.2.7 0l3-3.1zm-11.9.2h11.5v-1H9.8v1z"/></svg>

<svg xmlns="http://www.w3.org/2000/svg" viewBox="0 0 24 24">
	<g>
		<path d="M14.2,24H4.6c-1.3,0-2.4-1.1-2.4-2.4V2.4C2.2,1.1,3.2,0,4.6,0h9.6c0.3,0,0.5,0.2,0.5,0.5S14.4,1,14.2,1H4.6C3.8,1,3.1,1.6,3.1,2.4v19.2c0,0.8,0.6,1.4,1.4,1.4h9.6c0.3,0,0.5,0.2,0.5,0.5S14.4,24,14.2,24z"/>
		<path class="st0" d="M9.8,11.5c-0.3,0-0.5,0.2-0.5,0.5c0,0.3,0.2,0.5,0.5,0.5V11.5z M21.7,12.3c0.2-0.2,0.2-0.5,0-0.7l-3.1-3.1c-0.2-0.2-0.5-0.2-0.7,0c-0.2,0.2-0.2,0.5,0,0.7l2.7,2.7L18,14.7c-0.2,0.2-0.2,0.5,0,0.7c0.2,0.2,0.5,0.2,0.7,0L21.7,12.3z M9.8,12.5h11.5v-1H9.8V12.5z"/>
	</g>
</svg>
